korla/status/symbolic/bumblebee-active-symbolic.svg

<svg xmlns="http://www.w3.org/2000/svg" width="16" height="16" version="1">
 <path style="fill:#dfdfdf" d="M 1.6347,7.1666 C 1.6347,7.1666 3.1127,4.7474 6.001,4.4971 V 3.6195 C 2.8019,3.9105 0,6.9818 0,6.9818 0,6.9818 1.6006,12.124 6.001,12.594 V 11.661 C 2.7718,11.2 1.6347,7.1658 1.6347,7.1658 Z M 6.001,9.8059 V 10.66 C 3.5604,10.167 2.8515,7.2909 2.8515,7.2909 2.8515,7.2909 4.0548,5.8192 6.0011,5.5806 V 6.5181 C 5.9999,6.5181 5.9991,6.5177 5.9981,6.5177 4.9766,6.3787 4.1471,7.4606 4.1471,7.4606 4.1471,7.4606 4.6259,9.2813 6.0018,9.805 M 6.0018,2 V 3.6188 C 6.0957,3.6107 6.1581,3.6038 6.2525,3.6001 9.8895,3.4612 12.26,6.9813 12.26,6.9813 12.26,6.9813 9.5375,10.732 6.7019,10.732 6.442,10.732 6.2303,10.706 6.0018,10.66 V 11.661 C 6.1971,11.689 6.3683,11.705 6.5797,11.705 9.2182,11.705 11.127,10.178 12.974,8.3701 13.281,8.6478 14.535,9.325 14.793,9.6207 13.036,11.288 8.9417,12.632 6.6201,12.632 6.3963,12.632 6.2129,12.617 6.0017,12.593 V 14 H 16 V 2 H 6.0017 Z M 6.0018,5.5807 V 4.4965 C 6.0947,4.4902 6.1568,4.4835 6.2525,4.4801 8.8678,4.3869 10.584,7.0277 10.584,7.0277 10.584,7.0277 8.7306,9.9456 6.7433,9.9456 6.4573,9.9456 6.2324,9.8933 6.0016,9.805 V 6.5182 C 7.0198,6.6576 7.1932,7.1675 7.8057,8.3238 L 9.1672,7.0228 C 9.1672,7.0228 8.1729,5.5454 6.4978,5.5454 6.3157,5.5453 6.173,5.5599 6.0019,5.5805"/>
</svg>

<svg style="clip-rule:evenodd;fill-rule:evenodd;stroke-linejoin:round;stroke-miterlimit:2" version="1.1" viewBox="0 0 16 16" xmlns="http://www.w3.org/2000/svg">
 <g transform="matrix(1 0 0 .963606 0 .29115)">
  <path d="m1.635 7.167s1.478-2.42 4.366-2.67v-0.877c-3.199 0.291-6.001 3.362-6.001 3.362s1.601 5.142 6.001 5.612v-0.933c-3.229-0.461-4.366-4.495-4.366-4.495v1e-3zm4.366 2.639v0.854c-2.441-0.493-3.149-3.369-3.149-3.369s1.203-1.472 3.149-1.71v0.937h-3e-3c-1.021-0.139-1.851 0.943-1.851 0.943s0.479 1.82 1.855 2.344m0-7.805v1.619c0.094-8e-3 0.156-0.015 0.251-0.019 3.637-0.139 6.007 3.381 6.007 3.381s-2.722 3.751-5.558 3.751c-0.26 0-0.472-0.026-0.7-0.072v1.001c0.195 0.028 0.366 0.044 0.578 0.044 2.638 0 4.547-1.527 6.394-3.335 0.307 0.278 1.561 0.955 1.819 1.251-1.757 1.667-5.851 3.011-8.173 3.011-0.224 0-0.407-0.015-0.618-0.039v1.407h8.224c0.98 0 1.774-0.824 1.774-1.841v-8.318c0-1.017-0.794-1.841-1.774-1.841h-8.224zm0 3.581v-1.084c0.093-7e-3 0.155-0.013 0.251-0.017 2.615-0.093 4.331 2.548 4.331 2.548s-1.853 2.918-3.841 2.918c-0.286 0-0.511-0.053-0.741-0.141v-3.287c1.018 0.14 1.191 0.65 1.804 1.806l1.361-1.301s-0.994-1.478-2.669-1.478c-0.182 0-0.325 0.015-0.496 0.036" style="fill-rule:nonzero;fill:rgb(223,223,223)"/>
 </g>
</svg>
